assets/spraw/zhp_harc_sim_2022/artystyczne/aktor.svg

<svg xmlns="http://www.w3.org/2000/svg" viewBox="0 0 90.709 90.709"><circle cx="45.354" cy="45.354" r="43.52" fill="#194093"/><path d="M45.354 2.835c23.483 0 42.52 19.037 42.52 42.52s-19.037 42.52-42.52 42.52-42.52-19.037-42.52-42.52 19.037-42.52 42.52-42.52m0-2C20.806.835.834 20.806.834 45.355s19.971 44.52 44.52 44.52 44.52-19.971 44.52-44.52S69.903.835 45.354.835h0z" fill="#252e78"/><path d="M46.854 24.236v34.225a30.65 30.65 0 0 0 11.741-2.943 13.46 13.46 0 0 1-11.741 10.996V77.49c4.437-1.318 17.169-6.282 21.983-20.807 2.449-7.388 2.762-34.431 2.762-34.431s-14.13 1.818-24.745 1.984zM59.92 44.17c-2.984 1.143-6.531.632-8.309-.826.439-2.308 2.895-5.149 5.881-6.292s6.453.051 8.086 1.1c-.535 2.033-2.672 4.876-5.658 6.018zM45.354 77.883h.001-.001z" fill="#f8c409"/><path d="M34.024 65.606c.875-4.907 4.85-8.73 9.83-9.38V24.237c-11.142-.159-24.744-1.985-24.744-1.985s.313 27.042 2.761 34.431c4.683 14.13 17.583 19.364 21.982 20.771v-14.36a26.23 26.23 0 0 0-9.829 2.512zM25.13 38.153c1.631-1.049 5.1-2.243 8.086-1.1s5.441 3.984 5.881 6.292c-1.776 1.458-5.324 1.969-8.308.826s-5.121-3.986-5.659-6.018zm20.224 39.73h0 0z" fill="#fff"/></svg>

<?xml version="1.0" encoding="iso-8859-1"?>
<!-- Generator: Adobe Illustrator 22.1.0, SVG Export Plug-In . SVG Version: 6.00 Build 0)  -->
<svg version="1.1" xmlns="http://www.w3.org/2000/svg" xmlns:xlink="http://www.w3.org/1999/xlink" x="0px" y="0px"
	 viewBox="0 0 90.709 90.709" style="enable-background:new 0 0 90.709 90.709;" xml:space="preserve">
<g id="ratownik-1">
	<g>
		<g>
			<circle style="fill:#194093;" cx="45.354" cy="45.354" r="43.52"/>
			<g>
				<path style="fill:#252E78;" d="M45.354,2.835c23.483,0,42.52,19.037,42.52,42.52s-19.037,42.52-42.52,42.52
					s-42.52-19.037-42.52-42.52S21.871,2.835,45.354,2.835 M45.354,0.835c-24.548,0-44.52,19.971-44.52,44.52
					s19.971,44.52,44.52,44.52s44.52-19.971,44.52-44.52S69.903,0.835,45.354,0.835L45.354,0.835z"/>
			</g>
		</g>
	</g>
</g>
<g id="Warstwa_4">
	<g>
		<path style="fill:#F8C409;" d="M46.854,24.236v34.225c4.187-0.201,8.155-1.234,11.741-2.943
			c-1.037,5.817-5.803,10.335-11.741,10.996v10.976c4.437-1.318,17.169-6.282,21.983-20.807c2.449-7.388,2.762-34.431,2.762-34.431
			S57.469,24.07,46.854,24.236z M59.92,44.17c-2.984,1.143-6.531,0.632-8.309-0.826c0.439-2.308,2.895-5.149,5.881-6.292
			c2.986-1.142,6.453,0.051,8.086,1.1C65.043,40.185,62.906,43.028,59.92,44.17z"/>
		<polygon style="fill:#F8C409;" points="45.354,77.883 45.355,77.883 45.354,77.883 		"/>
		<path style="fill:#FFFFFF;" d="M34.024,65.606c0.875-4.907,4.85-8.73,9.83-9.38V24.237c-11.142-0.159-24.744-1.985-24.744-1.985
			s0.313,27.042,2.761,34.431c4.683,14.13,17.583,19.364,21.982,20.771V63.094C40.351,63.291,37.031,64.173,34.024,65.606z
			 M25.13,38.153c1.631-1.049,5.1-2.243,8.086-1.1c2.986,1.143,5.441,3.984,5.881,6.292c-1.776,1.458-5.324,1.969-8.308,0.826
			C27.804,43.028,25.668,40.185,25.13,38.153z"/>
		<polygon style="fill:#FFFFFF;" points="45.354,77.883 45.354,77.883 45.354,77.883 		"/>
	</g>
</g>
</svg>
